src/assets/images/footer-twitter.svg

<svg xmlns="http://www.w3.org/2000/svg" viewBox="0 0 24 24"><g fill-rule="nonzero" fill="none"><circle fill="#FFF" cx="12" cy="12" r="12"/><path d="M18.4 7.7c-.45.25-1 .4-1.5.45.55-.35.95-.9 1.15-1.55-.5.3-1.05.55-1.7.7-.5-.55-1.15-.9-1.9-.9-1.45 0-2.65 1.25-2.65 2.85 0 .2 0 .45.05.65-2.2-.1-4.15-1.25-5.45-2.95-.25.4-.35.9-.35 1.45 0 1 .45 1.85 1.15 2.35-.45 0-.85-.15-1.2-.35v.05c0 1.35.9 2.5 2.1 2.8-.2.05-.45.1-.7.1-.15 0-.35 0-.5-.05.35 1.15 1.3 1.95 2.45 1.95-.9.75-2.05 1.2-3.25 1.2-.2 0-.4 0-.65-.05 1.15.8 2.55 1.3 4.05 1.3 4.85 0 7.5-4.3 7.5-8.05V9.3c.6-.5 1.05-1 1.4-1.6Z" fill="#333"/></g></svg>

<?xml version="1.0" encoding="UTF-8"?>
<svg width="24px" height="24px" viewBox="0 0 24 24" version="1.1" xmlns="http://www.w3.org/2000/svg" xmlns:xlink="http://www.w3.org/1999/xlink">
    <title>294709_circle_twitter_icon</title>
    <g id="Page-1" stroke="none" stroke-width="1" fill="none" fill-rule="evenodd">
        <g id="294709_circle_twitter_icon" fill-rule="nonzero">
            <circle id="Oval" fill="#FFFFFF" cx="12" cy="12" r="12"></circle>
            <path d="M18.4,7.7 C17.95,7.95 17.4,8.1 16.9,8.15 C17.45,7.8 17.85,7.25 18.05,6.6 C17.55,6.9 17,7.15 16.35,7.3 C15.85,6.75 15.2,6.4 14.45,6.4 C13,6.4 11.8,7.65 11.8,9.25 C11.8,9.45 11.8,9.7 11.85,9.9 C9.65,9.8 7.7,8.65 6.4,6.95 C6.15,7.35 6.05,7.85 6.05,8.4 C6.05,9.4 6.5,10.25 7.2,10.75 C6.75,10.75 6.35,10.6 6,10.4 C6,10.4 6,10.45 6,10.45 C6,11.8 6.9,12.95 8.1,13.25 C7.9,13.3 7.65,13.35 7.4,13.35 C7.25,13.35 7.05,13.35 6.9,13.3 C7.25,14.45 8.2,15.25 9.35,15.25 C8.45,16 7.3,16.45 6.1,16.45 C5.9,16.45 5.7,16.45 5.45,16.4 C6.6,17.2 8,17.7 9.5,17.7 C14.35,17.7 17,13.4 17,9.65 C17,9.55 17,9.4 17,9.3 C17.6,8.8 18.05,8.3 18.4,7.7 Z" id="Path" fill="#333333"></path>
        </g>
    </g>
</svg>
